static/logos/clearscope-glyph-color.svg

<svg width="50" height="50" viewBox="0 0 50 50" fill="none" xmlns="http://www.w3.org/2000/svg">
<g clip-path="url(#clip0_1_3248)">
<path d="M40.625 0H9.375C4.19733 0 0 4.19733 0 9.375V40.625C0 45.8027 4.19733 50 9.375 50H40.625C45.8027 50 50 45.8027 50 40.625V9.375C50 4.19733 45.8027 0 40.625 0Z" fill="url(#paint0_linear_1_3248)"/>
<path d="M24.5548 40.4675C18.5047 39.697 14.2741 35.734 12.7502 29.3933C12.6137 28.8209 12.5 26.8834 12.5 25.1001C12.5 21.2252 12.9322 19.3317 14.3651 16.6237C16.0937 13.3653 19.1188 10.9655 22.8034 9.9307C25.169 9.27018 29.9227 9.18217 32.2882 9.75458C33.6301 10.0848 36.9509 11.4939 37.1556 11.8241C37.201 11.8902 37.1556 12.5507 37.0419 13.2773C36.4505 17.086 36.223 18.4731 36.0866 18.5832C36.0184 18.6492 35.2678 18.297 34.4034 17.8126C32.4473 16.6457 31.0372 16.2274 28.7399 16.0954C23.5313 15.7651 20.4608 19.0675 20.4608 24.9679C20.4608 28.3805 21.2114 30.406 23.0309 32.0353C25.1234 33.9066 27.8074 34.501 30.9234 33.7746C32.5611 33.4003 33.5619 32.9599 35.1085 32.0132C35.7909 31.5949 36.4278 31.3307 36.4959 31.4408C36.6097 31.6169 37.1556 34.7653 37.4513 36.8789C37.565 37.7816 37.565 37.8035 36.4733 38.486C33.7211 40.1593 28.6945 40.996 24.5548 40.4675Z" fill="white"/>
</g>
<defs>
<linearGradient id="paint0_linear_1_3248" x1="1.5625" y1="3.125" x2="48.4375" y2="50" gradientUnits="userSpaceOnUse">
<stop stop-color="#DEBF4B"/>
<stop offset="0.192708" stop-color="#6FAA72"/>
<stop offset="0.657004" stop-color="#4967BD"/>
</linearGradient>
<clipPath id="clip0_1_3248">
<rect width="50" height="50" fill="white"/>
</clipPath>
</defs>
</svg>

<svg xmlns="http://www.w3.org/2000/svg" width="64" height="64" fill="none" viewBox="0 0 50 50"><g clip-path="url(#a)"><path fill="url(#b)" d="M40.625 0H9.375A9.375 9.375 0 0 0 0 9.375v31.25A9.375 9.375 0 0 0 9.375 50h31.25A9.375 9.375 0 0 0 50 40.625V9.375A9.375 9.375 0 0 0 40.625 0Z"/><path fill="#fff" d="M24.555 40.468c-6.05-.771-10.28-4.734-11.805-11.075-.136-.572-.25-2.51-.25-4.293 0-3.875.432-5.768 1.865-8.476 1.729-3.259 4.754-5.658 8.438-6.693 2.366-.66 7.12-.749 9.485-.176 1.342.33 4.663 1.739 4.868 2.07.045.065 0 .726-.114 1.452-.592 3.809-.819 5.196-.955 5.306-.069.066-.82-.286-1.684-.77-1.956-1.167-3.366-1.586-5.663-1.718-5.209-.33-8.28 2.973-8.28 8.873 0 3.413.751 5.438 2.57 7.067 2.093 1.872 4.777 2.466 7.893 1.74 1.638-.375 2.639-.815 4.186-1.762.682-.418 1.319-.682 1.387-.572.114.176.66 3.324.955 5.438.114.903.114.925-.978 1.607-2.752 1.673-7.778 2.51-11.918 1.982Z"/></g><defs><linearGradient id="b" x1="1.563" x2="48.438" y1="3.125" y2="50" gradientUnits="userSpaceOnUse"><stop stop-color="#DEBF4B"/><stop offset=".193" stop-color="#6FAA72"/><stop offset=".657" stop-color="#4967BD"/></linearGradient><clipPath id="a"><path fill="#fff" d="M0 0h50v50H0z"/></clipPath></defs></svg>
